Resources/Icons/unmute.svg

<svg version="1.1" xmlns="http://www.w3.org/2000/svg" xmlns:xlink="http://www.w3.org/1999/xlink" width="30" height="32">
    <path id="shapePath1" d="M0,19.429 L0,12.572 C0,12.2627 0.113,11.9947 0.339,11.768 C0.565,11.5413 0.833,11.4283 1.143,11.429 L5.822,11.429 L11.768,5.483 C11.994,5.257 12.262,5.144 12.572,5.144 C12.882,5.144 13.15,5.257 13.376,5.483 C13.602,5.709 13.715,5.977 13.715,6.287 L13.715,25.716 C13.715,26.0253 13.602,26.2933 13.376,26.52 C13.15,26.7467 12.882,26.8597 12.572,26.859 C12.262,26.8583 11.994,26.7453 11.768,26.52 L5.822,20.574 L1.143,20.574 C0.833667,20.574 0.565666,20.461 0.339,20.235 C0.112333,20.009 -0.000666618,19.741 0,19.431 L0,19.429 M16.214,19.143 C16.214,18.893 16.2853,18.6817 16.428,18.509 C16.5707,18.3363 16.7433,18.1877 16.946,18.063 C17.1487,17.9383 17.351,17.8013 17.553,17.652 C17.755,17.5027 17.9277,17.2913 18.071,17.018 C18.2143,16.7447 18.2857,16.4053 18.285,16 C18.2843,15.5947 18.213,15.2553 18.071,14.982 C17.929,14.7087 17.7563,14.4973 17.553,14.348 C17.3497,14.1987 17.1473,14.0617 16.946,13.937 C16.7447,13.8123 16.572,13.6637 16.428,13.491 C16.284,13.3183 16.2127,13.107 16.214,12.857 C16.214,12.5357 16.327,12.2647 16.553,12.044 C16.779,11.8233 17.047,11.7133 17.357,11.714 C17.5357,11.714 17.6843,11.7437 17.803,11.803 C18.6363,12.1243 19.306,12.678 19.812,13.464 C20.318,14.25 20.571,15.0953 20.571,16 C20.571,16.9047 20.318,17.747 19.812,18.527 C19.306,19.307 18.6363,19.8637 17.803,20.197 C17.6837,20.2563 17.535,20.286 17.357,20.286 C17.0477,20.286 16.7797,20.176 16.553,19.956 C16.3263,19.736 16.2133,19.465 16.214,19.143 M18,23.357 C18,22.893 18.232,22.5417 18.696,22.303 C19.3627,21.9577 19.815,21.6957 20.053,21.517 C20.9337,20.8743 21.6213,20.0677 22.116,19.097 C22.6107,18.1263 22.8577,17.0937 22.857,15.999 C22.8563,14.9043 22.6093,13.8717 22.116,12.901 C21.6227,11.9303 20.935,11.1237 20.053,10.481 C19.815,10.3023 19.3627,10.0403 18.696,9.695 C18.232,9.457 18,9.10567 18,8.641 C18,8.33167 18.113,8.06367 18.339,7.837 C18.565,7.61033 18.833,7.49733 19.143,7.498 C19.2977,7.498 19.4523,7.52767 19.607,7.587 C21.2737,8.28967 22.613,9.41167 23.625,10.953 C24.637,12.4943 25.143,14.176 25.143,15.998 C25.143,17.82 24.637,19.5017 23.625,21.043 C22.613,22.5843 21.2737,23.7063 19.607,24.409 C19.4523,24.4683 19.3037,24.498 19.161,24.498 C18.8397,24.498 18.566,24.385 18.34,24.159 C18.114,23.933 18.001,23.665 18.001,23.355 L18,23.357 Z" style="stroke:none;fill-rule:evenodd;fill:#000000;fill-opacity:1;"/>
</svg>

<svg version="1.1" xmlns="http://www.w3.org/2000/svg" width="30" height="32"><path d="M0 19.429v-6.857c0-.31.113-.577.339-.804.226-.227.494-.34.804-.339h4.679l5.946-5.946c.226-.226.494-.339.804-.339.31 0 .578.113.804.339.226.226.339.494.339.804v19.429a1.1 1.1 0 0 1-.339.804c-.226.227-.494.34-.804.339-.31 0-.578-.114-.804-.339l-5.946-5.946H1.143a1.1 1.1 0 0 1-.804-.339A1.094 1.094 0 0 1 0 19.431v-.002m16.214-.286c0-.25.071-.461.214-.634.143-.173.315-.321.518-.446a8.63 8.63 0 0 0 .607-.411c.202-.15.375-.36.518-.634.143-.273.215-.613.214-1.018 0-.405-.072-.745-.214-1.018a1.793 1.793 0 0 0-.518-.634 9.307 9.307 0 0 0-.607-.411 2.125 2.125 0 0 1-.518-.446.949.949 0 0 1-.214-.634c0-.321.113-.592.339-.813.226-.22.494-.33.804-.33.179 0 .327.03.446.089.833.321 1.503.875 2.009 1.661a4.6 4.6 0 0 1 0 5.063 4.22 4.22 0 0 1-2.009 1.67.998.998 0 0 1-.446.089c-.31 0-.577-.11-.804-.33a1.085 1.085 0 0 1-.339-.813M18 23.357c0-.464.232-.815.696-1.054.667-.345 1.119-.607 1.357-.786a6.75 6.75 0 0 0 2.063-2.42 6.72 6.72 0 0 0 .741-3.098 6.754 6.754 0 0 0-.741-3.098 6.723 6.723 0 0 0-2.063-2.42c-.238-.179-.69-.44-1.357-.786-.464-.238-.696-.59-.696-1.054 0-.31.113-.577.339-.804.226-.227.494-.34.804-.339.155 0 .31.03.464.089 1.667.703 3.006 1.825 4.018 3.366 1.012 1.541 1.518 3.223 1.518 5.045s-.506 3.504-1.518 5.045-2.351 2.663-4.018 3.366c-.155.06-.303.089-.446.089-.321 0-.595-.113-.821-.339a1.099 1.099 0 0 1-.339-.804l-.001.002z" stroke="none" fill-rule="evenodd" fill="#000" fill-opacity="1"/></svg>
